packages/core/src/svgs/tokens/mono/PALM.svg

<svg width="24" height="24" viewBox="0 0 24 24" fill="none" xmlns="http://www.w3.org/2000/svg">
<path fill-rule="evenodd" clip-rule="evenodd" d="M12 21.4117C14.4961 21.4117 16.89 20.4202 18.6551 18.6551C20.4202 16.89 21.4117 14.4961 21.4117 12C21.4117 9.50377 20.4202 7.10991 18.6551 5.34487C16.89 3.57982 14.4961 2.58823 12 2.58823C9.50377 2.58823 7.10991 3.57982 5.34487 5.34487C3.57982 7.10991 2.58823 9.50377 2.58823 12C2.58823 14.4961 3.57982 16.89 5.34487 18.6551C7.10991 20.4202 9.50377 21.4117 12 21.4117ZM12 22C14.6522 22 17.1957 20.9464 19.071 19.071C20.9464 17.1957 22 14.6522 22 12C22 9.34785 20.9464 6.80429 19.071 4.92892C17.1957 3.05357 14.6522 2 12 2C9.34785 2 6.80429 3.05357 4.92892 4.92892C3.05357 6.80429 2 9.34785 2 12C2 14.6522 3.05357 17.1957 4.92892 19.071C6.80429 20.9464 9.34785 22 12 22Z" fill="white"/>
<path fill-rule="evenodd" clip-rule="evenodd" d="M20.8237 12.0002C20.8237 14.3403 19.8941 16.5846 18.2395 18.2394C16.5848 19.894 14.3404 20.8236 12.0003 20.8236C9.66013 20.8236 7.41583 19.894 5.7611 18.2394C4.10637 16.5846 3.17676 14.3403 3.17676 12.0002C3.17676 9.66 4.10637 7.41571 5.7611 5.76098C7.41583 4.10625 9.66013 3.17664 12.0003 3.17664C14.3404 3.17664 16.5848 4.10625 18.2395 5.76098C19.8941 7.41571 20.8237 9.66 20.8237 12.0002ZM12.0003 9.94138C11.8061 9.45316 11.412 8.23545 11.412 7.29428C11.412 6.3531 11.8061 4.94133 12.0003 4.3531C12.1944 4.94133 12.5885 6.3531 12.5885 7.29428C12.5885 8.23545 12.1944 9.45316 12.0003 9.94138ZM12.5885 9.64724C13.0768 8.66487 14.5885 6.70605 16.7061 6.70605L12.5885 9.64724ZM13.1767 10.2355C14.1591 10.0413 16.4708 10.059 17.8827 11.7061C16.512 11.2178 13.6474 10.2355 13.1767 10.2355ZM12.8826 10.5295C13.8649 10.9237 15.9415 12.1766 16.4121 14.059L12.8826 10.5295ZM11.1179 10.5295C10.0414 10.8237 7.82381 11.9413 7.58851 14.059C8.47087 12.9825 10.412 10.7649 11.1179 10.5295ZM10.8238 10.2355C9.74728 10.0413 7.2944 10.059 6.11794 11.7061C7.10028 11.1178 9.41211 10.0001 10.8238 10.2355ZM7.2944 6.70605C8.17676 6.70605 10.2356 7.29428 11.412 9.64724C10.4297 8.66487 8.23557 6.70605 7.2944 6.70605ZM6.11794 8.76487C8.17676 8.17664 10.1179 8.70604 12.0003 10.8237C13.8826 8.70604 15.8238 8.17664 17.8827 8.76487C15.8297 8.55899 13.4591 9.38838 12.1355 10.9825C13.6886 12.8472 13.818 15.2413 12.4415 16.8943C12.971 17.4638 13.6254 17.9027 14.3533 18.1767C14.8238 18.0179 15.1356 18.3061 15.2356 18.4708C15.0003 18.4708 14.5474 18.8649 14.3533 19.0589C13.8826 19.0589 13.9591 18.6649 14.0591 18.4708C13.3001 18.2513 12.5977 17.87 12.0003 17.3531C11.4709 17.8236 10.7826 18.2119 9.9415 18.4708C10.0414 18.6649 10.1179 19.0589 9.64736 19.0589C9.45328 18.8649 9.00029 18.4708 8.76499 18.4708C8.86498 18.3061 9.17676 18.0179 9.64736 18.1767C10.3752 17.9027 11.0295 17.4638 11.559 16.8943C10.1827 15.2472 10.3121 12.8472 11.865 10.9825C10.5414 9.38838 8.17087 8.55899 6.11794 8.76487ZM12.0003 11.159C11.487 11.827 11.1802 12.6306 11.1179 13.4707C11.0508 14.5124 11.3644 15.543 12.0003 16.3708C12.6362 15.543 12.9497 14.5124 12.8826 13.4707C12.8204 12.6306 12.5137 11.827 12.0003 11.159ZM7.46498 16.4648H6.90616L6.81205 16.7002H6.58264L7.05911 15.5237H7.31205L7.78263 16.7002H7.55911L7.46498 16.4648ZM7.40617 16.306L7.18852 15.7589L6.97087 16.306H7.40617ZM8.6591 16.5472H8.21205V15.5296H7.9944V16.706H8.6591V16.5472ZM10.2356 16.706V15.5296H10.0002L9.5414 16.4532L9.07086 15.5296H8.83558V16.706H9.0591V15.9002L9.46495 16.706H9.61209L10.0239 15.9002V16.706H10.2356ZM6.41205 16.0472C6.43666 16.0064 6.45196 15.9607 6.45686 15.9133C6.46177 15.866 6.45616 15.8181 6.44042 15.7732C6.42469 15.7282 6.39923 15.6873 6.36585 15.6534C6.33247 15.6193 6.292 15.5931 6.24734 15.5766C6.1654 15.5427 6.07716 15.5267 5.98852 15.5296H5.52969V16.706H5.74735V16.2296H5.98263C6.10029 16.2296 6.18851 16.2119 6.25323 16.1766C6.32382 16.1472 6.37676 16.1001 6.40617 16.0472H6.41205ZM6.17675 16.0237C6.1297 16.0531 6.07087 16.0708 5.98852 16.0708H5.74735V15.6884H5.98263C6.15322 15.6884 6.23558 15.7473 6.23558 15.8767C6.23791 15.904 6.23381 15.9316 6.22359 15.9571C6.21338 15.9826 6.19734 16.0054 6.17675 16.0237ZM17.8827 15.5296L17.4356 16.2825V16.706H17.212V16.2825L16.7591 15.5296H17.0061L17.3237 16.106L17.6356 15.5296H17.8827ZM15.7649 16.4707H16.3355L16.4297 16.706H16.6649L16.1767 15.5296H15.9237L15.4355 16.706H15.6709L15.7649 16.4707ZM16.0473 15.7648L16.2709 16.306H15.8297L16.0473 15.7648ZM15.3003 15.8824C15.3003 15.9413 15.2885 16.0002 15.2533 16.0472C15.2167 16.1064 15.1635 16.1535 15.1002 16.1825C15.0238 16.2119 14.9355 16.2296 14.8238 16.2296H14.5767V16.706H14.3533V15.5296H14.8238C14.9238 15.5296 15.0121 15.5473 15.0886 15.5766C15.1531 15.6031 15.2084 15.6482 15.2474 15.7061C15.2826 15.7589 15.3061 15.8178 15.3061 15.8824H15.3003ZM14.8238 16.0708C14.9061 16.0708 14.9709 16.0531 15.0121 16.0237C15.0319 16.0061 15.0474 15.9843 15.0575 15.9599C15.0677 15.9353 15.0722 15.9089 15.0708 15.8824C15.0708 15.7532 14.9885 15.6884 14.8238 15.6884H14.5767V16.0708H14.8238Z" fill="white"/>
</svg>

<svg xmlns="http://www.w3.org/2000/svg" width="24" height="24" fill="none" viewBox="0 0 24 24">
    <path fill="#fff" fill-rule="evenodd" d="M12 21.412a9.412 9.412 0 1 0 0-18.824 9.412 9.412 0 0 0 0 18.824M12 22a10 10 0 1 0 0-20 10 10 0 0 0 0 20" clip-rule="evenodd"/>
    <path fill="#fff" fill-rule="evenodd" d="M20.824 12a8.824 8.824 0 1 1-17.649 0 8.824 8.824 0 0 1 17.649 0M12 9.941c-.194-.488-.588-1.706-.588-2.647s.394-2.353.588-2.94c.194.587.588 2 .588 2.94 0 .941-.394 2.16-.588 2.647m.588-.294c.489-.982 2-2.941 4.118-2.941zm.589.588c.982-.194 3.294-.176 4.706 1.471-1.371-.488-4.236-1.47-4.706-1.47m-.294.295c.982.394 3.059 1.647 3.53 3.529zm-1.765 0c-1.077.294-3.294 1.411-3.53 3.529.883-1.076 2.824-3.294 3.53-3.53m-.294-.294c-1.077-.195-3.53-.177-4.706 1.47.982-.588 3.294-1.706 4.706-1.47m-3.53-3.53c.883 0 2.942.588 4.118 2.941-.982-.982-3.176-2.941-4.118-2.941M6.118 8.765c2.059-.588 4-.059 5.882 2.059 1.883-2.118 3.824-2.647 5.883-2.06-2.053-.205-4.424.624-5.747 2.219 1.553 1.864 1.682 4.258.306 5.911a5 5 0 0 0 1.911 1.283c.47-.16.783.13.883.294-.236 0-.689.394-.883.588-.47 0-.394-.394-.294-.588A5.5 5.5 0 0 1 12 17.353c-.53.47-1.217.859-2.059 1.118.1.194.177.588-.294.588-.194-.194-.647-.588-.882-.588a.74.74 0 0 1 .882-.294 5 5 0 0 0 1.912-1.283c-1.376-1.647-1.247-4.047.306-5.911-1.324-1.595-3.694-2.424-5.747-2.218M12 11.159a4.3 4.3 0 0 0-.882 2.312 4.3 4.3 0 0 0 .882 2.9c.636-.828.95-1.859.883-2.9A4.3 4.3 0 0 0 12 11.159m-4.535 5.306h-.559l-.094.235h-.23l.477-1.176h.253l.47 1.176H7.56zm-.059-.159-.217-.547-.218.547zm1.253.241h-.447V15.53h-.218v1.176h.665zm1.577.159V15.53H10l-.459.923-.47-.923h-.235v1.176h.223V15.9l.406.806h.147l.412-.806v.806zm-3.824-.659a.324.324 0 0 0-.165-.47.6.6 0 0 0-.258-.047h-.46v1.176h.218v-.476h.236a.6.6 0 0 0 .27-.053.3.3 0 0 0 .153-.13zm-.235-.023a.34.34 0 0 1-.188.047h-.242v-.383h.236c.17 0 .253.06.253.189a.18.18 0 0 1-.06.147m11.706-.494-.447.752v.424h-.224v-.424l-.453-.752h.247l.318.576.312-.576zm-2.118.94h.57l.095.236h.235l-.488-1.176h-.253l-.489 1.176h.236zm.282-.705.224.541h-.441zm-.747.117a.27.27 0 0 1-.047.165.35.35 0 0 1-.153.136.8.8 0 0 1-.276.047h-.247v.476h-.224V15.53h.47q.151.001.266.047a.35.35 0 0 1 .217.305zm-.476.189a.33.33 0 0 0 .188-.047.18.18 0 0 0 .059-.142q0-.194-.247-.194h-.247v.383z" clip-rule="evenodd"/>
</svg>
